X:1
T:Psalm 99
T:V 1
L:1/4
M:16/4
I:linebreak $
K:C
V:1 treble nm="Pipe Organ" snm="Org."
V:1
 G2 D2 E ^F G B2 B c A G3 z |$ d2 d2 B c d B2 d c c B3 z |$ d2 c2 B A G E2 ^F G E D3 z |$ %3
w: God die HEER re- geer. Beef, o vol- ke, eer,|eer die God wat troon, waar die gé- rubs woon;|wat in Is- ra- el sy ge- rig be- stel.|
[M:20/4] D2 G2 A B c2 B G2 A B c A2 G4 |] %4
w: Aar- de\_en- al wat le- we laat dit voor Hom be- we!|

